svgs/themed_icon_calendar_30.svg

<svg height="192" width="192" xmlns="http://www.w3.org/2000/svg"><path d="M146 30H46c-8.837 0-16 7.163-16 16v100c0 8.837 7.163 16 16 16h75.373a16 16 0 0 0 11.313-4.686l24.628-24.628A16 16 0 0 0 162 121.373V46c0-8.837-7.163-16-16-16Z" stroke="#000" stroke-width="12" fill="none"/><path d="M73.924 120.792c-2.544 0-5.136-.288-7.776-.864-2.592-.576-4.848-1.44-6.768-2.592-1.536-.816-2.496-1.824-2.88-3.024-.384-1.248-.336-2.4.144-3.456.528-1.056 1.368-1.8 2.52-2.232 1.152-.48 2.472-.36 3.96.36 1.872.912 3.648 1.56 5.328 1.944 1.68.384 3.36.576 5.04.576 5.856 0 8.784-2.184 8.784-6.552 0-4.032-2.736-6.048-8.208-6.048H69.82c-1.584 0-2.808-.384-3.672-1.152-.816-.816-1.224-1.92-1.224-3.312 0-1.44.408-2.544 1.224-3.312.864-.816 2.088-1.224 3.672-1.224h3.168c2.4 0 4.296-.552 5.688-1.656 1.392-1.104 2.088-2.64 2.088-4.608 0-3.936-2.568-5.904-7.704-5.904-1.584 0-3.12.192-4.608.576-1.44.336-3.024.96-4.752 1.872-1.344.672-2.544.792-3.6.36-1.056-.432-1.848-1.176-2.376-2.232-.48-1.056-.576-2.16-.288-3.312.288-1.152 1.128-2.112 2.52-2.88 4.176-2.448 8.88-3.672 14.112-3.672 5.472 0 9.744 1.224 12.816 3.672 3.072 2.448 4.608 5.808 4.608 10.08 0 2.64-.672 4.968-2.016 6.984-1.344 2.016-3.216 3.48-5.616 4.392 2.88.816 5.112 2.328 6.696 4.536 1.632 2.16 2.448 4.776 2.448 7.848 0 4.608-1.704 8.232-5.112 10.872-3.408 2.64-8.064 3.96-13.968 3.96Zm42.956 0c-6.144 0-10.848-2.28-14.112-6.84-3.216-4.56-4.824-11.064-4.824-19.512s1.608-14.88 4.824-19.296c3.264-4.464 7.968-6.696 14.112-6.696s10.824 2.232 14.04 6.696c3.264 4.416 4.896 10.848 4.896 19.296 0 8.448-1.632 14.952-4.896 19.512-3.216 4.56-7.896 6.84-14.04 6.84Zm0-9.072c2.784 0 4.848-1.368 6.192-4.104 1.344-2.784 2.016-7.176 2.016-13.176s-.672-10.32-2.016-12.96c-1.344-2.64-3.408-3.96-6.192-3.96-2.784 0-4.848 1.32-6.192 3.96-1.344 2.64-2.016 6.96-2.016 12.96 0 6 .672 10.392 2.016 13.176 1.344 2.736 3.408 4.104 6.192 4.104Z"/></svg>

<?xml version="1.0" encoding="UTF-8" standalone="no"?><svg xmlns:android="http://schemas.android.com/apk/res/android" height="192" width="192" xmlns="http://www.w3.org/2000/svg">
  <path d="M146,30H46C37.163,30 30,37.163 30,46V146C30,154.837 37.163,162 46,162H121.373C125.616,162 129.686,160.314 132.686,157.314L157.314,132.686C160.314,129.686 162,125.616 162,121.373V46C162,37.163 154.837,30 146,30Z" fill="#000000" fill-opacity="0.0" stroke="#000000" stroke-width="12"/>
  <path d="M73.924,120.792C71.38,120.792 68.788,120.504 66.148,119.928C63.556,119.352 61.3,118.488 59.38,117.336C57.844,116.52 56.884,115.512 56.5,114.312C56.116,113.064 56.164,111.912 56.644,110.856C57.172,109.8 58.012,109.056 59.164,108.624C60.316,108.144 61.636,108.264 63.124,108.984C64.996,109.896 66.772,110.544 68.452,110.928C70.132,111.312 71.812,111.504 73.492,111.504C79.348,111.504 82.276,109.32 82.276,104.952C82.276,100.92 79.54,98.904 74.068,98.904H69.82C68.236,98.904 67.012,98.52 66.148,97.752C65.332,96.936 64.924,95.832 64.924,94.44C64.924,93 65.332,91.896 66.148,91.128C67.012,90.312 68.236,89.904 69.82,89.904H72.988C75.388,89.904 77.284,89.352 78.676,88.248C80.068,87.144 80.764,85.608 80.764,83.64C80.764,79.704 78.196,77.736 73.06,77.736C71.476,77.736 69.94,77.928 68.452,78.312C67.012,78.648 65.428,79.272 63.7,80.184C62.356,80.856 61.156,80.976 60.1,80.544C59.044,80.112 58.252,79.368 57.724,78.312C57.244,77.256 57.148,76.152 57.436,75C57.724,73.848 58.564,72.888 59.956,72.12C64.132,69.672 68.836,68.448 74.068,68.448C79.54,68.448 83.812,69.672 86.884,72.12C89.956,74.568 91.492,77.928 91.492,82.2C91.492,84.84 90.82,87.168 89.476,89.184C88.132,91.2 86.26,92.664 83.86,93.576C86.74,94.392 88.972,95.904 90.556,98.112C92.188,100.272 93.004,102.888 93.004,105.96C93.004,110.568 91.3,114.192 87.892,116.832C84.484,119.472 79.828,120.792 73.924,120.792ZM116.88,120.792C110.736,120.792 106.032,118.512 102.768,113.952C99.552,109.392 97.944,102.888 97.944,94.44C97.944,85.992 99.552,79.56 102.768,75.144C106.032,70.68 110.736,68.448 116.88,68.448C123.024,68.448 127.704,70.68 130.92,75.144C134.184,79.56 135.816,85.992 135.816,94.44C135.816,102.888 134.184,109.392 130.92,113.952C127.704,118.512 123.024,120.792 116.88,120.792ZM116.88,111.72C119.664,111.72 121.728,110.352 123.072,107.616C124.416,104.832 125.088,100.44 125.088,94.44C125.088,88.44 124.416,84.12 123.072,81.48C121.728,78.84 119.664,77.52 116.88,77.52C114.096,77.52 112.032,78.84 110.688,81.48C109.344,84.12 108.672,88.44 108.672,94.44C108.672,100.44 109.344,104.832 110.688,107.616C112.032,110.352 114.096,111.72 116.88,111.72Z" fill="#000000"/>
</svg>
